resources/svg/questionnaire-line.svg

<svg fill="currentColor" viewBox="0 0 24 24" xmlns="http://www.w3.org/2000/svg"><path d="M5.76282 17H20V5H4V18.3851L5.76282 17ZM6.45455 19L2 22.5V4C2 3.44772 2.44772 3 3 3H21C21.5523 3 22 3.44772 22 4V18C22 18.5523 21.5523 19 21 19H6.45455ZM11 14H13V16H11V14ZM8.56731 8.81346C8.88637 7.20919 10.302 6 12 6C13.933 6 15.5 7.567 15.5 9.5C15.5 11.433 13.933 13 12 13H11V11H12C12.8284 11 13.5 10.3284 13.5 9.5C13.5 8.67157 12.8284 8 12 8C11.2723 8 10.6656 8.51823 10.5288 9.20577L8.56731 8.81346Z"/></svg>

<svg xmlns="http://www.w3.org/2000/svg" viewBox="0 0 24 24" fill="currentColor">
    <g>
        <path fill="none" d="M0 0h24v24H0z"/>
        <path fill-rule="nonzero" d="M5.763 17H20V5H4v13.385L5.763 17zm.692 2L2 22.5V4a1 1 0 0 1 1-1h18a1 1 0 0 1 1 1v14a1 1 0 0 1-1 1H6.455zM11 14h2v2h-2v-2zM8.567 8.813A3.501 3.501 0 1 1 12 13h-1v-2h1a1.5 1.5 0 1 0-1.471-1.794l-1.962-.393z"/>
    </g>
</svg>
